X: 21382
T: POLWART ON THE GREEN
Q: "Slowly"
%R: reel
B: "Edinburgh Repository of Music" v.2 p.138 #2
F: http://digital.nls.uk/special-collections-of-printed-music/pageturner.cfm?id=87776133
Z: 2015 John Chambers <jc:trillian.mit.edu>
M: C|
L: 1/8
K: D
AG |\
F3E DEFG | A4 d3e | f3e defd | e2 E4 AG |\
F3E DEFG | A4 a2-ag | f3e defe | d2D2 D2 :|
|: ag |\
fg~a>b {b}a2gf | ef~g>a {a}g2fe | d3e fdgf | e2 E4 AG |\
F3E DEFG | A4 a3g | f3e defe | d2D2 D2 :|

%%sep 2 1 500
%%sep 1 1 500

